file/tiktok.svg

<svg clip-rule="evenodd" fill-rule="evenodd" stroke-linejoin="round" stroke-miterlimit="1.41421" viewBox="0 0 560 400" xmlns="http://www.w3.org/2000/svg"><g transform="matrix(.114082 0 0 .114082 137.398 54.5627)"><g fill-rule="nonzero"><path d="m612.5 1557.19 5 14.37c-.625-1.56-2.5-6.56-5-14.37zm202.812-327.81c9.063-77.82 39.688-121.25 97.188-165.94 82.5-60.31 185.31-26.25 185.31-26.25v-202.815c25-.625 50 .938 74.69 4.688v260.937s-102.81-34.06-185.313 26.25c-57.499 44.69-88.124 88.13-97.187 165.94-.313 42.19 7.187 97.5 42.187 145-8.75-4.69-17.5-10-26.562-15.94-76.563-53.75-90.625-134.69-90.313-191.87zm782.498-770.005c-56.56-64.688-78.12-130.313-85.93-176.25h71.25s-14.07 120.625 89.37 239.062l1.56 1.563c-28.12-18.125-53.75-40-76.25-64.375zm343.44 183.75v255.625s-90.94-3.75-158.44-21.562c-94.06-25-154.37-63.438-154.37-63.438s-41.88-27.5-45-29.375v528.125c0 29.38-7.81 102.81-31.25 164.06-30.63 80-78.13 132.82-86.88 143.44 0 0-57.81 71.25-159.37 119.06-91.56 43.13-172.19 42.19-196.25 43.13 0 0-139.065 5.62-264.378-79.06-27.187-18.75-52.5-40-75.625-63.44l.625.62c125.313 85 264.378 79.07 264.378 79.07 24.06-.94 104.69 0 196.25-43.13 101.56-47.81 159.37-119.06 159.37-119.06 8.75-10.63 56.25-63.44 86.88-143.44 23.44-61.25 31.25-134.69 31.25-164.06v-527.815c3.44 1.875 45 29.375 45 29.375s60.31 38.438 154.37 63.438c67.5 17.812 158.44 21.562 158.44 21.562v-200.312c31.25 7.187 57.81 9.062 75 7.187z" fill="#ee1d52"/><path d="m1866.25 635.625v200.313s-90.94-3.75-158.44-21.563c-94.06-25-154.37-63.437-154.37-63.437s-41.88-27.5-45-29.375v528.127c0 29.37-7.81 102.81-31.25 164.06-30.63 80-78.13 132.81-86.88 143.44 0 0-57.81 71.25-159.37 119.06-91.56 43.13-172.19 42.19-196.25 43.13 0 0-139.065 5.62-264.377-79.07l-.625-.62c-13.125-13.44-25.625-27.5-37.188-42.19-40-50.94-64.375-110.94-70.625-128.12v-.32c-10-29.68-30.625-101.56-27.812-170.62 5-122.19 46.25-197.5 57.187-216.25 28.75-51.25 66.563-97.19 110.938-135.628 39.375-33.125 84.062-59.687 131.875-78.125 51.875-21.875 107.497-33.437 163.747-34.375v202.818s-102.81-34.07-185.31 26.25c-57.5 44.68-88.125 88.12-97.188 165.93-.312 57.19 13.75 138.13 90.625 192.19 9.063 5.94 17.813 11.25 26.563 15.94 13.438 18.12 29.687 34.06 48.437 47.19 75.313 49.68 138.123 53.12 218.753 20.93 53.75-21.56 94.06-70 112.81-124.06 11.88-33.75 11.56-67.5 11.56-102.5v-995.625h187.5c7.82 45.937 29.07 111.562 85.94 176.25 22.81 24.375 48.44 46.25 76.25 64.375 8.13 9.062 50.31 52.812 104.69 80 27.81 14.062 57.5 24.687 87.81 31.875z"/><path d="m587.188 1407.5 4.687 13.44c-.625-1.56-2.5-6.25-4.687-13.44z" fill="#69c9d0"/><path d="m934.062 868.75c-48.124 18.437-92.5 45-131.874 78.125-44.688 38.438-82.188 84.685-110.938 135.935-10.937 18.75-52.187 93.75-57.188 216.25-2.812 69.38 18.126 140.94 27.813 170.63v.31c6.25 16.88 30.625 77.19 70.625 128.13 11.562 14.68 24.062 28.75 37.188 42.18-42.5-29.37-80-64.68-112.188-105-39.687-50.31-64.063-110-70.313-127.5v-.62c-9.999-29.69-30.937-101.56-27.812-170.94 5-122.19 46.25-197.5 57.188-216.25 28.749-51.25 66.249-97.5 110.937-135.937 39.375-33.125 84.063-59.688 131.875-78.125 30-12.5 61.25-21.563 93.125-27.5 48.13-8.438 97.19-9.063 145.63-2.188v58.125c-56.57.938-112.192 12.5-164.067 34.375z" fill="#69c9d0"/><path d="m1511.88 283.125h-187.5v995.625c0 35 0 68.75-11.57 102.5-19.06 53.75-59.37 102.5-112.81 124.06-80.62 32.5-143.75 28.75-218.75-20.93-18.75-12.82-35-28.75-48.437-46.88 64.062 34.06 121.247 33.44 192.187 5 53.75-21.56 94.06-70.31 112.81-124.06 11.88-33.75 11.57-67.5 11.57-102.5v-995.627h259.06c-.31 0-3.13 24.687 3.44 62.812zm354.37 297.188v55.312c-30.31-7.188-60-17.812-87.81-31.875-54.06-26.875-96.25-70.937-104.69-80 9.69 6.25 19.38 11.875 29.69 17.188 66.25 32.812 130.94 42.812 162.81 39.375z" fill="#69c9d0"/></g><path d="m1521.56 2192.19c-2.18-6.88-3.12-13.75-3.12-20.94v-.62c0 7.5.94 14.68 3.12 21.56zm154.69-21.56v.62c0 7.19-.94 14.06-3.12 20.94 2.18-6.88 3.12-14.06 3.12-21.56z" fill="none"/><path d="m1518.13 2171.25c0 7.19.93 14.06 3.12 20.94 0 .62.31.94.31 1.56 10.32 33.13 40.94 55.63 75.63 55.63v80c-39.06 0-66.88 1.25-109.38-23.75-48.12-28.75-75.31-80.94-75.31-135.32 0-55.93 30.31-112.18 82.19-139.37 37.5-19.69 65.94-19.69 102.81-19.69v80c-43.75 0-79.06 35.31-79.06 79.06z" fill="#69c9d0" fill-rule="nonzero"/><path d="m1676.88 2171.25c0 7.19-.94 14.06-3.13 20.94 0 .62-.31.94-.31 1.56-10.31 33.13-40.94 55.63-75.63 55.63v80c38.75 0 66.88 1.25 109.07-23.75 48.43-28.75 75.62-80.94 75.62-135.32 0-55.93-30.31-112.18-82.19-139.37-37.5-19.69-65.93-19.69-102.81-19.69v80c43.75 0 79.06 35.31 79.06 79.06v.94z" fill="#ee1d52" fill-rule="nonzero"/><path d="m373.438 1938.75h292.812l-27.187 80.63h-76.563v308.43h-94.062v-308.43h-95zm776.252 0v80.63h95v308.43h94.37v-308.43h76.57l27.18-80.63zm-419.69 91.56c25.312 0 45.625-20.31 45.625-45.62s-20.313-45.63-45.625-45.63c-25.313 0-45.625 20.32-45.625 45.63s20.312 45.62 45.625 45.62zm-45.625 297.19h92.5v-265h-92.5zm425.005-299.37h-108.13l-93.125 93.12v-182.5h-91.875l-.313 388.44h92.813v-101.25l28.75-26.25 90 127.5h99.06l-130.31-186.25zm886.87 113.12 113.13-113.12h-108.13l-93.12 93.12v-182.5h-91.88l-.62 388.75h92.81v-101.25l29.06-26.25 90 127.5h99.06zm-237.81 28.75c0 87.81-72.19 159.06-161.25 159.06s-161.25-71.25-161.25-159.06 72.19-159.06 161.25-159.06 161.25 71.25 161.25 159.06zm-82.19 0c0-43.75-35.31-79.06-79.06-79.06s-79.06 35.31-79.06 79.06 35.31 79.06 79.06 79.06 79.06-35.31 79.06-79.06z" fill-rule="nonzero"/></g></svg>

<?xml version="1.0" encoding="UTF-8" standalone="no"?>
<!DOCTYPE svg PUBLIC "-//W3C//DTD SVG 1.1//EN" "http://www.w3.org/Graphics/SVG/1.1/DTD/svg11.dtd">
<svg width="100%" height="100%" viewBox="0 0 560 400" version="1.1" xmlns="http://www.w3.org/2000/svg" xmlns:xlink="http://www.w3.org/1999/xlink" xml:space="preserve" xmlns:serif="http://www.serif.com/" style="fill-rule:evenodd;clip-rule:evenodd;stroke-linejoin:round;stroke-miterlimit:1.41421;">
    <g transform="matrix(0.114082,0,0,0.114082,137.398,54.5627)">
        <path d="M612.5,1557.19L617.5,1571.56C616.875,1570 615,1565 612.5,1557.19ZM815.312,1229.38C824.375,1151.56 855,1108.13 912.5,1063.44C995,1003.13 1097.81,1037.19 1097.81,1037.19L1097.81,834.375C1122.81,833.75 1147.81,835.313 1172.5,839.063L1172.5,1100C1172.5,1100 1069.69,1065.94 987.187,1126.25C929.688,1170.94 899.063,1214.38 890,1292.19C889.687,1334.38 897.187,1389.69 932.187,1437.19C923.437,1432.5 914.687,1427.19 905.625,1421.25C829.062,1367.5 815,1286.56 815.312,1229.38ZM1597.81,459.375C1541.25,394.687 1519.69,329.062 1511.88,283.125L1583.13,283.125C1583.13,283.125 1569.06,403.75 1672.5,522.187L1674.06,523.75C1645.94,505.625 1620.31,483.75 1597.81,459.375ZM1941.25,643.125L1941.25,898.75C1941.25,898.75 1850.31,895 1782.81,877.188C1688.75,852.188 1628.44,813.75 1628.44,813.75C1628.44,813.75 1586.56,786.25 1583.44,784.375L1583.44,1312.5C1583.44,1341.88 1575.63,1415.31 1552.19,1476.56C1521.56,1556.56 1474.06,1609.38 1465.31,1620C1465.31,1620 1407.5,1691.25 1305.94,1739.06C1214.38,1782.19 1133.75,1781.25 1109.69,1782.19C1109.69,1782.19 970.625,1787.81 845.312,1703.13C818.125,1684.38 792.812,1663.13 769.687,1639.69L770.312,1640.31C895.625,1725.31 1034.69,1719.38 1034.69,1719.38C1058.75,1718.44 1139.38,1719.38 1230.94,1676.25C1332.5,1628.44 1390.31,1557.19 1390.31,1557.19C1399.06,1546.56 1446.56,1493.75 1477.19,1413.75C1500.63,1352.5 1508.44,1279.06 1508.44,1249.69L1508.44,721.875C1511.88,723.75 1553.44,751.25 1553.44,751.25C1553.44,751.25 1613.75,789.688 1707.81,814.688C1775.31,832.5 1866.25,836.25 1866.25,836.25L1866.25,635.938C1897.5,643.125 1924.06,645 1941.25,643.125Z" style="fill:rgb(238,29,82);fill-rule:nonzero;"/>
        <path d="M1866.25,635.625L1866.25,835.938C1866.25,835.938 1775.31,832.188 1707.81,814.375C1613.75,789.375 1553.44,750.938 1553.44,750.938C1553.44,750.938 1511.56,723.438 1508.44,721.563L1508.44,1249.69C1508.44,1279.06 1500.63,1352.5 1477.19,1413.75C1446.56,1493.75 1399.06,1546.56 1390.31,1557.19C1390.31,1557.19 1332.5,1628.44 1230.94,1676.25C1139.38,1719.38 1058.75,1718.44 1034.69,1719.38C1034.69,1719.38 895.625,1725 770.313,1640.31L769.688,1639.69C756.563,1626.25 744.063,1612.19 732.5,1597.5C692.5,1546.56 668.125,1486.56 661.875,1469.38L661.875,1469.06C651.875,1439.38 631.25,1367.5 634.063,1298.44C639.063,1176.25 680.313,1100.94 691.25,1082.19C720,1030.94 757.813,985 802.188,946.562C841.563,913.437 886.25,886.875 934.063,868.437C985.938,846.562 1041.56,835 1097.81,834.062L1097.81,1036.88C1097.81,1036.88 995,1002.81 912.5,1063.13C855,1107.81 824.375,1151.25 815.312,1229.06C815,1286.25 829.062,1367.19 905.937,1421.25C915,1427.19 923.75,1432.5 932.5,1437.19C945.938,1455.31 962.187,1471.25 980.937,1484.38C1056.25,1534.06 1119.06,1537.5 1199.69,1505.31C1253.44,1483.75 1293.75,1435.31 1312.5,1381.25C1324.38,1347.5 1324.06,1313.75 1324.06,1278.75L1324.06,283.125L1511.56,283.125C1519.38,329.062 1540.63,394.687 1597.5,459.375C1620.31,483.75 1645.94,505.625 1673.75,523.75C1681.88,532.812 1724.06,576.562 1778.44,603.75C1806.25,617.812 1835.94,628.437 1866.25,635.625Z" style="fill-rule:nonzero;"/>
        <g>
            <path d="M587.188,1407.5L591.875,1420.94C591.25,1419.38 589.375,1414.69 587.188,1407.5Z" style="fill:rgb(105,201,208);fill-rule:nonzero;"/>
            <path d="M934.062,868.75C885.938,887.187 841.562,913.75 802.188,946.875C757.5,985.313 720,1031.56 691.25,1082.81C680.313,1101.56 639.063,1176.56 634.062,1299.06C631.25,1368.44 652.188,1440 661.875,1469.69L661.875,1470C668.125,1486.88 692.5,1547.19 732.5,1598.13C744.062,1612.81 756.562,1626.88 769.688,1640.31C727.188,1610.94 689.688,1575.63 657.5,1535.31C617.813,1485 593.437,1425.31 587.187,1407.81L587.187,1407.19C577.188,1377.5 556.25,1305.63 559.375,1236.25C564.375,1114.06 605.625,1038.75 616.563,1020C645.312,968.75 682.812,922.5 727.5,884.063C766.875,850.938 811.563,824.375 859.375,805.938C889.375,793.438 920.625,784.375 952.5,778.438C1000.63,770 1049.69,769.375 1098.13,776.25L1098.13,834.375C1041.56,835.313 985.938,846.875 934.063,868.75Z" style="fill:rgb(105,201,208);fill-rule:nonzero;"/>
            <path d="M1511.88,283.125L1324.38,283.125L1324.38,1278.75C1324.38,1313.75 1324.38,1347.5 1312.81,1381.25C1293.75,1435 1253.44,1483.75 1200,1505.31C1119.38,1537.81 1056.25,1534.06 981.25,1484.38C962.5,1471.56 946.25,1455.63 932.813,1437.5C996.875,1471.56 1054.06,1470.94 1125,1442.5C1178.75,1420.94 1219.06,1372.19 1237.81,1318.44C1249.69,1284.69 1249.38,1250.94 1249.38,1215.94L1249.38,220.313L1508.44,220.313C1508.13,220.313 1505.31,245 1511.88,283.125ZM1866.25,580.313L1866.25,635.625C1835.94,628.437 1806.25,617.813 1778.44,603.75C1724.38,576.875 1682.19,532.813 1673.75,523.75C1683.44,530 1693.13,535.625 1703.44,540.938C1769.69,573.75 1834.38,583.75 1866.25,580.313Z" style="fill:rgb(105,201,208);fill-rule:nonzero;"/>
        </g>
        <path d="M1521.56,2192.19C1519.38,2185.31 1518.44,2178.44 1518.44,2171.25L1518.44,2170.63C1518.44,2178.13 1519.38,2185.31 1521.56,2192.19ZM1676.25,2170.63L1676.25,2171.25C1676.25,2178.44 1675.31,2185.31 1673.13,2192.19C1675.31,2185.31 1676.25,2178.13 1676.25,2170.63Z" style="fill:none;fill-rule:nonzero;"/>
        <path d="M1518.13,2171.25C1518.13,2178.44 1519.06,2185.31 1521.25,2192.19C1521.25,2192.81 1521.56,2193.13 1521.56,2193.75C1531.88,2226.88 1562.5,2249.38 1597.19,2249.38L1597.19,2329.38C1558.13,2329.38 1530.31,2330.63 1487.81,2305.63C1439.69,2276.88 1412.5,2224.69 1412.5,2170.31C1412.5,2114.38 1442.81,2058.13 1494.69,2030.94C1532.19,2011.25 1560.63,2011.25 1597.5,2011.25L1597.5,2091.25C1553.75,2091.25 1518.44,2126.56 1518.44,2170.31L1518.13,2171.25Z" style="fill:rgb(105,201,208);fill-rule:nonzero;"/>
        <path d="M1676.88,2171.25C1676.88,2178.44 1675.94,2185.31 1673.75,2192.19C1673.75,2192.81 1673.44,2193.13 1673.44,2193.75C1663.13,2226.88 1632.5,2249.38 1597.81,2249.38L1597.81,2329.38C1636.56,2329.38 1664.69,2330.63 1706.88,2305.63C1755.31,2276.88 1782.5,2224.69 1782.5,2170.31C1782.5,2114.38 1752.19,2058.13 1700.31,2030.94C1662.81,2011.25 1634.38,2011.25 1597.5,2011.25L1597.5,2091.25C1641.25,2091.25 1676.56,2126.56 1676.56,2170.31L1676.56,2171.25L1676.88,2171.25Z" style="fill:rgb(238,29,82);fill-rule:nonzero;"/>
        <path d="M373.438,1938.75L666.25,1938.75L639.063,2019.38L562.5,2019.38L562.5,2327.81L468.438,2327.81L468.438,2019.38L373.438,2019.38L373.438,1938.75ZM1149.69,1938.75L1149.69,2019.38L1244.69,2019.38L1244.69,2327.81L1339.06,2327.81L1339.06,2019.38L1415.63,2019.38L1442.81,1938.75L1149.69,1938.75ZM730,2030.31C755.312,2030.31 775.625,2010 775.625,1984.69C775.625,1959.38 755.312,1939.06 730,1939.06C704.687,1939.06 684.375,1959.38 684.375,1984.69C684.375,2010 704.687,2030.31 730,2030.31ZM684.375,2327.5L776.875,2327.5L776.875,2062.5L684.375,2062.5L684.375,2327.5ZM1109.38,2028.13L1001.25,2028.13L908.125,2121.25L908.125,1938.75L816.25,1938.75L815.937,2327.19L908.75,2327.19L908.75,2225.94L937.5,2199.69L1027.5,2327.19L1126.56,2327.19L996.25,2140.94L1109.38,2028.13ZM1996.25,2141.25L2109.38,2028.13L2001.25,2028.13L1908.13,2121.25L1908.13,1938.75L1816.25,1938.75L1815.63,2327.5L1908.44,2327.5L1908.44,2226.25L1937.5,2200L2027.5,2327.5L2126.56,2327.5L1996.25,2141.25ZM1758.44,2170C1758.44,2257.81 1686.25,2329.06 1597.19,2329.06C1508.13,2329.06 1435.94,2257.81 1435.94,2170C1435.94,2082.19 1508.13,2010.94 1597.19,2010.94C1686.25,2010.94 1758.44,2082.19 1758.44,2170ZM1676.25,2170C1676.25,2126.25 1640.94,2090.94 1597.19,2090.94C1553.44,2090.94 1518.13,2126.25 1518.13,2170C1518.13,2213.75 1553.44,2249.06 1597.19,2249.06C1640.94,2249.06 1676.25,2213.75 1676.25,2170Z" style="fill-rule:nonzero;"/>
    </g>
</svg>
